_site/images/icons/verification-basic.svg

<svg height="64" viewBox="0 0 64 64" width="64" xmlns="http://www.w3.org/2000/svg"><g fill="none"><path d="m52 64h-40c-6.628 0-12-5.372-12-12v-40c0-6.628 5.372-12 12-12h40c6.628 0 12 5.372 12 12v40c0 6.628-5.372 12-12 12z" fill="#b7d7d6"/><g fill="#0b7a76"><path d="m39.322 31.768-7-2.38c-.208-.072-.434-.072-.644 0l-7 2.38c-.406.138-.678.518-.678.946v5.358c0 6.54 7.298 9.716 7.61 9.85.124.052.258.078.39.078s.266-.026.39-.08c.312-.132 7.61-3.31 7.61-9.848v-5.358c0-.428-.272-.808-.678-.946zm-2.94 5.056-3.666 4.666c-.224.286-.556.468-.918.504-.044.004-.088.006-.132.006-.316 0-.626-.112-.868-.32l-2.334-2c-.56-.48-.626-1.32-.144-1.88.48-.558 1.322-.624 1.878-.144l1.278 1.094 2.808-3.572c.454-.578 1.292-.68 1.872-.224.58.452.682 1.29.226 1.87z"/><path d="m44 16h-24c-2.2 0-4 1.8-4 4v21.334c0 2.2 1.8 4 4 4h3.974c-.64-.814-1.2-1.694-1.64-2.666h-2.334c-.734 0-1.334-.6-1.334-1.334v-18.666h26.668v18.666c0 .734-.6 1.334-1.334 1.334h-2.334c-.44.974-1 1.854-1.626 2.666h3.96c2.2 0 4-1.8 4-4v-21.334c0-2.2-1.8-4-4-4z"/></g></g></svg>

<?xml version="1.0" encoding="UTF-8"?>
<svg width="64px" height="64px" viewBox="0 0 64 64" version="1.1" xmlns="http://www.w3.org/2000/svg" xmlns:xlink="http://www.w3.org/1999/xlink">
    <!-- Generator: Sketch 52.6 (67491) - http://www.bohemiancoding.com/sketch -->
    <title>verification</title>
    <desc>Created with Sketch.</desc>
    <g id="Website" stroke="none" stroke-width="1" fill="none" fill-rule="evenodd">
        <g id="6--Pricing" transform="translate(-522.000000, -3180.000000)" fill-rule="nonzero">
            <g id="Group-12" transform="translate(92.000000, 2652.000000)">
                <g id="Group-30" transform="translate(45.000000, 528.000000)">
                    <g id="Group-11">
                        <g id="verification" transform="translate(385.000000, 0.000000)">
                            <path d="M52,64 L12,64 C5.372,64 0,58.628 0,52 L0,12 C0,5.372 5.372,0 12,0 L52,0 C58.628,0 64,5.372 64,12 L64,52 C64,58.628 58.628,64 52,64 Z" id="Path" fill="#B7D7D6"></path>
                            <path d="M39.322,31.768 L32.322,29.388 C32.114,29.316 31.888,29.316 31.678,29.388 L24.678,31.768 C24.272,31.906 24,32.286 24,32.714 L24,38.072 C24,44.612 31.298,47.788 31.61,47.922 C31.734,47.974 31.868,48 32,48 C32.132,48 32.266,47.974 32.39,47.92 C32.702,47.788 40,44.61 40,38.072 L40,32.714 C40,32.286 39.728,31.906 39.322,31.768 Z M36.382,36.824 L32.716,41.49 C32.492,41.776 32.16,41.958 31.798,41.994 C31.754,41.998 31.71,42 31.666,42 C31.35,42 31.04,41.888 30.798,41.68 L28.464,39.68 C27.904,39.2 27.838,38.36 28.32,37.8 C28.8,37.242 29.642,37.176 30.198,37.656 L31.476,38.75 L34.284,35.178 C34.738,34.6 35.576,34.498 36.156,34.954 C36.736,35.406 36.838,36.244 36.382,36.824 Z" id="Shape" fill="#0B7A76"></path>
                            <path d="M44,16 L20,16 C17.8,16 16,17.8 16,20 L16,41.334 C16,43.534 17.8,45.334 20,45.334 L23.974,45.334 C23.334,44.52 22.774,43.64 22.334,42.668 L20,42.668 C19.266,42.668 18.666,42.068 18.666,41.334 L18.666,22.668 L45.334,22.668 L45.334,41.334 C45.334,42.068 44.734,42.668 44,42.668 L41.666,42.668 C41.226,43.642 40.666,44.522 40.04,45.334 L44,45.334 C46.2,45.334 48,43.534 48,41.334 L48,20 C48,17.8 46.2,16 44,16 Z" id="Path" fill="#0B7A76"></path>
                        </g>
                    </g>
                </g>
            </g>
        </g>
    </g>
</svg>
